X: 20873
T: The REAL IRISH QUADRILLES No 5. -- la Finale.
P: The Devil take the Peelers.
%R: polka, reel
B: W. Hamilton "Universal Tune-Book" Vol. 2 Glasgow 1846 p.87 #3
S: http://s3-eu-west-1.amazonaws.com/itma.dl.printmaterial/book_pdfs/hamiltonvol2web.pdf
Z: 2016 John Chambers <jc:trillian.mit.edu>
M: 2/4
L: 1/16
K: D
% - - - - - - - - - - - - - - - - - - - - - - - - -
|:\
F2A2 d4 | c2e2 g4 | edcB A2G2 | F2A2 d4 |\
F2A2 d4 | c2e2 g4 | (3(f2g2a2) A2c2 | d4 D4 ::\
f2d2 (3(f2g2a2) | e2c2 (3(e2f2g2) | g2d2 c2d2 | edcB A2g2 |
f2d2 (3(f2g2a2) | e2c2 (3(e2f2g2) | f2d2 A2c2 | d4 D4 ::\
F2D2G2E2 | A2F2B2G2 | g2f2e2d2 | c2e2A2g2 |\
f2d2g2e2 | a2f2b2g2 | (3(f2g2a2) (3(A2B2c2) | d4 D4 :|
% - - - - - - - - - - - - - - - - - - - - - - - - -

%%sep 1 1 500
%%sep 1 1 500

